Sources/FrostedUI/Resources/Icons.xcassets/gridAdd12.imageset/grid-add-12.svg

<svg width="12" height="12" viewBox="0 0 12 12" fill="none" xmlns="http://www.w3.org/2000/svg" data-fui-icon="true">
  <path
    d="M3.63965 6.5C4.6669 6.5 5.5 7.3331 5.5 8.36035V10.1396C5.5 11.1669 4.6669 12 3.63965 12H1.86035C0.833102 12 0 11.1669 0 10.1396V8.36035C0 7.3331 0.833102 6.5 1.86035 6.5H3.63965ZM9.25 6.5C9.66421 6.5 10 6.83579 10 7.25V8.5H11.25C11.6642 8.5 12 8.83579 12 9.25C12 9.66421 11.6642 10 11.25 10H10V11.25C10 11.6642 9.66421 12 9.25 12C8.83579 12 8.5 11.6642 8.5 11.25V10H7.25C6.83579 10 6.5 9.66421 6.5 9.25C6.5 8.83579 6.83579 8.5 7.25 8.5H8.5V7.25C8.5 6.83579 8.83579 6.5 9.25 6.5ZM1.86035 8C1.66153 8 1.5 8.16153 1.5 8.36035V10.1396C1.5 10.3385 1.66153 10.5 1.86035 10.5H3.63965C3.83847 10.5 4 10.3385 4 10.1396V8.36035C4 8.16153 3.83847 8 3.63965 8H1.86035ZM3.63965 0C4.6669 0 5.5 0.833102 5.5 1.86035V3.63965C5.5 4.6669 4.6669 5.5 3.63965 5.5H1.86035C0.833102 5.5 0 4.6669 0 3.63965V1.86035C0 0.833102 0.833102 0 1.86035 0H3.63965ZM10.1396 0C11.1669 0 12 0.833101 12 1.86035V3.63965C12 4.6669 11.1669 5.5 10.1396 5.5H8.36035C7.3331 5.5 6.5 4.6669 6.5 3.63965V1.86035C6.5 0.833102 7.3331 0 8.36035 0H10.1396ZM1.86035 1.5C1.66153 1.5 1.5 1.66153 1.5 1.86035V3.63965C1.5 3.83847 1.66153 4 1.86035 4H3.63965C3.83847 4 4 3.83847 4 3.63965V1.86035C4 1.66153 3.83847 1.5 3.63965 1.5H1.86035ZM8.36035 1.5C8.16153 1.5 8 1.66153 8 1.86035V3.63965C8 3.83847 8.16153 4 8.36035 4H10.1396C10.3385 4 10.5 3.83847 10.5 3.63965V1.86035C10.5 1.66153 10.3385 1.5 10.1396 1.5H8.36035Z"
    fill="currentColor"
  />
</svg>

<svg xmlns="http://www.w3.org/2000/svg" width="12" height="12" fill="none" data-fui-icon="true" viewBox="0 0 12 12"><path fill="currentColor" d="M3.64 6.5A1.86 1.86 0 0 1 5.5 8.36v1.78A1.86 1.86 0 0 1 3.64 12H1.86A1.86 1.86 0 0 1 0 10.14V8.36A1.86 1.86 0 0 1 1.86 6.5zm5.61 0a.75.75 0 0 1 .75.75V8.5h1.25a.75.75 0 0 1 0 1.5H10v1.25a.75.75 0 0 1-1.5 0V10H7.25a.75.75 0 0 1 0-1.5H8.5V7.25a.75.75 0 0 1 .75-.75M1.86 8a.36.36 0 0 0-.36.36v1.78c0 .198.162.36.36.36h1.78a.36.36 0 0 0 .36-.36V8.36A.36.36 0 0 0 3.64 8zm1.78-8A1.86 1.86 0 0 1 5.5 1.86v1.78A1.86 1.86 0 0 1 3.64 5.5H1.86A1.86 1.86 0 0 1 0 3.64V1.86A1.86 1.86 0 0 1 1.86 0zm6.5 0A1.86 1.86 0 0 1 12 1.86v1.78a1.86 1.86 0 0 1-1.86 1.86H8.36A1.86 1.86 0 0 1 6.5 3.64V1.86A1.86 1.86 0 0 1 8.36 0zM1.86 1.5a.36.36 0 0 0-.36.36v1.78c0 .198.162.36.36.36h1.78A.36.36 0 0 0 4 3.64V1.86a.36.36 0 0 0-.36-.36zm6.5 0a.36.36 0 0 0-.36.36v1.78c0 .198.162.36.36.36h1.78a.36.36 0 0 0 .36-.36V1.86a.36.36 0 0 0-.36-.36z"/></svg>
